X: 42208
T: Waves At Dingle, The
R: reel
M: 4/4
K: Gminor
dc|:BGGG DGBc|dGGG dcBG|AFFF CFFF|A,FFF ABcA|
B2 GF DGBc|dccc dcd=e|abc'b abga|1 fdcA GAdc:|2 fdcA GAgf||
|:dggg g3a|bgc'a bagc'|afff =efcg|fdcA FGAc|
dggg g3a|bgc'a bagf|bggg fdcA|1 GBA^F G2 Bc:|2 GBA^F G4||

